X: 3229
T: Beggarman, The
R: jig
M: 6/8
K: Dmixolydian
|:"D5(Bm7)"f2d g2e|fed edB|"(G)"ABd e2e-|e2d efg|
"(D/F#)"f2d g2e|"(Em)"fed edB|"(A5)"ABd ef/e/d|ef/e/d d2A:|
"C"c'2b c'ba|b/c'/bg agf|"G"gaf gfe|f2d cd/c/B|"D"A3 d2A|fed edc|
"C"Bc/B/A GAB|"G5"ADD "D5"D2z|"Am7"c'2b c'ba|b/c'/bg agf|"G"gaf gfe|
f2d cd/c/B|"Em"A3 d2A|"D5/F#"fed edc|"G5"Bc/B/A GAB|"A5"Add d2z||
"C"c'bc' dgc'|"G5/B"bda dgd|"D5/A"fg/f/e fga|"G5"cgB gAg|"C"E3 edc|"D5"Bc/B/A GAB|
Bc/B/D cd/c/D|dAd d2z|"C"c'bc' dgc'|"G5/B"bda dgd|"D5/A"fg/f/e fga|
"G5"cgB gAg|"Am7"EFG FGA|"G5/B"DGc Bcd|"C"ceg dgb|"D5"dfa d'2z||
"C"c'bc' dgc'|"G5/B"bda dgd|"D5/A"fg/f/e fga|"G5"cgB gAg|"C"ABc edc|"D5"B/c/BA GAB|
B/c/BE c/d/cE|dAd d'c'b|"C"c'bc' dgc'|"G5/B"bda dgd|"D5/A"fg/f/e fga|"G5"gcG g2z|
"Am7"EFG FGA|"G5/B"DGc Bcd|"C"d/e/dA e/f/eA|f/g/fdgab|"D5"a/b/ad abc'|bgg"G5" gz2||

